X: 2
T: Good Riddance
C: Howard P. Slosek
O: Penacook, New Hampshire
%R: reel
Z: Collected and edited 2014 by John Chambers <jc:trillian.mit.edu>
B: GEMS The Best of the Country Dance and Song Society Diamond Jubilee Music, Dance and Song Contest 1993 p.68 #2
M: C|
L: 1/8
K: Bb
% - - - - - - - - - - - - - - - - - - - - - - - - -
(3FGA |\
"Bb"B2Bd "F"c2ce | "Bb"dcBA "Gm"B3A |\
"Eb"G2G2 "Cm"GFGA | "F"G2F2 "Bb"B2 (3FGA |
"Bb"B2BA "Eb"G2G2 | "F"FGA2 "Bb"B2z2 |\
"Cm"c2cd "Eb"e2e2 | "F"dedc "Bb"B2 :|
|: c2 |\
"Dm"d2g2 "Gm"g2ga | "Dm"bagf "Gm"d2de |\
"F"f2fg fdc2 | "Bb"d2de dcBc |
"Dm"d2g2 "Gm"g2ga | "Dm"bagf "Gm"d2de |\
"F"f2fg fdc2 |1 "Bb"B2B2 B2 :|2 "Bb"B6 |]
% - - - - - - - - - - - - - - - - - - - - - - - - -
